X:1876
T:Callino casturame
C:anon.
O:England
Z:Transcribed by Frank Nordberg - http://www.musicaviva.com
F:http://abc.musicaviva.com/tunes/england/callino-casturame.abc
M:3/4
L:1/4
Q:1/4=180
K:G
"G"G>AB|"G"B>cB|"C"c2c|"G"B>cB|"A"A2A|
"A"A>BA|"E"^G>AG|"A"A2A|"G"B>cd|"G"B>AG|
"D"F>GA|"D"F>ED|"G"G2G|"G"G>AB|"D7"A>GF|"G"G3|]
W:
W:
W:  From Musica Viva - http://www.musicaviva.com
W:  the Internet center for free sheet music downloads.
